public/icon/icon-mail.svg

<svg width="14" height="14" viewBox="0 0 14 14" fill="none" xmlns="http://www.w3.org/2000/svg">
<path d="M1.4 1H12.6C13.37 1 14 1.675 14 2.5V11.5C14 12.325 13.37 13 12.6 13H1.4C0.63 13 0 12.325 0 11.5V2.5C0 1.675 0.63 1 1.4 1Z" fill="#ABB910"/>
<path fill-rule="evenodd" clip-rule="evenodd" d="M2.24282 3.08466C2.59563 2.65267 3.20339 2.61377 3.6003 2.99775L6.99994 6.28671L10.3996 2.99775C10.7965 2.61377 11.4042 2.65267 11.7571 3.08466C12.1099 3.51664 12.0741 4.17811 11.6772 4.56209L7.63875 8.46906C7.27444 8.82151 6.72544 8.82151 6.36113 8.46906L2.32268 4.56209C1.92577 4.17811 1.89002 3.51664 2.24282 3.08466Z" fill="#F5F5F5"/>
</svg>

<svg width="14" height="14" fill="none" xmlns="http://www.w3.org/2000/svg"><path d="M1.4 1h11.2c.77 0 1.4.675 1.4 1.5v9c0 .825-.63 1.5-1.4 1.5H1.4C.63 13 0 12.325 0 11.5v-9C0 1.675.63 1 1.4 1z" fill="#ABB910"/><path fill-rule="evenodd" clip-rule="evenodd" d="M2.243 3.085A.908.908 0 013.6 2.998L7 6.287l3.4-3.29a.908.908 0 011.357.088 1.112 1.112 0 01-.08 1.477L7.64 8.47a.904.904 0 01-1.278 0L2.323 4.562a1.112 1.112 0 01-.08-1.477z" fill="#F5F5F5"/></svg>
